X: 28912
T: Na Clocha Liath
R: reel
M: 4/4
K: Eminor
"Em"E3E EFGA|B3B BcBA|"D" F3F FGFE|D2 B,2 B,2 D2|
"Em"E3D EFGA|B2e2 e2f2|gfeg "D" fedf|1 "Em" e2 ed e4:|2 "Em"e3 e e2f2||
|:"G"g3g gbag|"D" f3g fed2|"G"g3g gbag|"D" f3g f4|
"G"g3g gbag|"D" f3g fed2|"Em" gfeg "D" fedf|1 "Em" e3 e e2f2:|2 "Em" e2 ed e4||

